!!!OTL: Xi yishang
!!!ARE: Asia, China, Shanxi, Ziyang
!! I, 78
!!!SCT: C1408
!!!YEM: Copyright 1995, estate of Helmut Schaffrath.
**kern
*ICvox
*Ivox
!! Mixed meters:  3/8; 4/8
*M4/8
*k[f#c#]
*D:
{16dd
16b
8ee
8dd
=1
16dd
16ee
16dd
16b
8ee
8dd}
=2
{16a
16dd
16b
16dd
16b
16a
8a}
=3
{16dd
16b
16dd
16dd
4ee
=4
16dd
16b
16ee
16b
4a
=5
8dd
8b
16ee
16b
8dd}
=6
{8a
8dd
16ee
16dd
16b
[16a
=7
*M3/8
4.a]}
=8
*M4/8
{8a
8dd
16ee
16dd
16cc#
16b
=9
2a}
==
!!!AGN: Xiaodiao. Shenghuo xiaochang
!!!ONB: ESAC (Essen Associative Code) Database: HUANG
!!!AMT: irregular
!!!AIN: vox
!!!EED: Helmut Schaffrath
!!!EEV: 1.0
*-
!!!ONB: Tied note syntax fixed by Craig Sapp, 2004/05/03/
